src/assets/skills/organization.svg

<svg fill="none" height="737" viewBox="0 0 736 737" width="736" xmlns="http://www.w3.org/2000/svg" xmlns:xlink="http://www.w3.org/1999/xlink"><linearGradient id="a" gradientUnits="userSpaceOnUse" x1="368.005" x2="368.005" y1="0" y2="737"><stop offset=".00225706" stop-color="#2b5355"/><stop offset="1"/></linearGradient><clipPath id="b"><rect height="737" rx="368" width="736"/></clipPath><g clip-path="url(#b)"><path d="m.00540161 368.5c0-203.241 164.75959839-368.5 367.99959839-368.5 203.241 0 368 165.259 368 368.5 0 203.241-164.759 368.5-368 368.5-203.24 0-367.99959839-165.259-367.99959839-368.5z" fill="url(#a)"/><path d="m594.836 312.511v28.432l-238.675 284.32h-183.053c-18.001 0-32.567-14.585-32.567-32.612v-365.436c0-31.417 25.413-56.864 56.787-56.864h126.777c4.676.002 9.279 1.16 13.4 3.372s7.633 5.41 10.223 9.308l39.921 59.964c2.594 3.892 6.107 7.084 10.228 9.291s8.722 3.362 13.396 3.361h126.776c31.375 0 56.787 25.447 56.787 56.864z" fill="#c4c4c4"/><path clip-rule="evenodd" d="m229.53 288.612-30.363-30.269c-4.035-4.017-9.492-6.272-15.181-6.271h-77.002c-11.8641 0-21.4729 9.578-21.4729 21.406v149.845c0 11.826 9.6088 21.406 21.4729 21.406h107.364c11.863 0 21.473-9.58 21.473-21.406v-119.577c0-5.672-2.266-11.12-6.291-15.134z" fill="#fff" fill-rule="evenodd"/><path d="m185.433 297.226h-53.543c-16.206 0-29.344 13.155-29.344 29.384v53.615c0 16.228 13.138 29.384 29.344 29.384h53.543c16.206 0 29.344-13.156 29.344-29.384v-53.615c0-16.229-13.138-29.384-29.344-29.384z" fill="#2ccbd3" stroke="#fff" stroke-linecap="round" stroke-linejoin="round" stroke-width="12.155"/><path d="m214.777 341.619c-8.523-1.307-17.228-.746-25.513 1.645s-15.953 6.554-22.475 12.203c-6.521 5.648-11.74 12.647-15.296 20.513-3.556 7.865-5.365 16.41-5.301 25.044.018 2.875.248 5.744.686 8.586m-6.275-78.661c.44.435.74.992.863 1.599s.063 1.236-.172 1.809-.635 1.062-1.148 1.407c-.514.345-1.118.529-1.737.529-.618 0-1.222-.184-1.736-.529s-.913-.834-1.149-1.407c-.235-.573-.295-1.202-.172-1.809s.424-1.164.863-1.599c.587-.583 1.38-.91 2.206-.91s1.619.327 2.205.91z" stroke="#fff" stroke-linecap="round" stroke-linejoin="round" stroke-width="12.155"/><g clip-rule="evenodd" fill-rule="evenodd"><path d="m407.946 149.225-28.793-28.703c-3.825-3.81-9.001-5.948-14.396-5.948h-73.02c-11.25 0-20.362 9.084-20.362 20.299v142.097c0 11.216 9.112 20.3 20.362 20.3h101.813c11.25 0 20.363-9.084 20.363-20.3v-113.393c0-5.379-2.149-10.545-5.967-14.352z" fill="#fff"/><path d="m370.726 221.285-37.124 21.038c-9.14 5.173-20.449-1.476-20.449-12.037v-42.067c0-10.569 11.289-17.21 20.449-12.037l37.124 21.038c9.325 5.266 9.325 18.781 0 24.065z" fill="#2ccbd3"/><path d="m606.527 167.449-26.69-26.608c-3.546-3.531-8.344-5.512-13.345-5.512h-67.685c-10.428 0-18.875 8.419-18.875 18.816v131.717c0 10.396 8.447 18.817 18.875 18.817h94.375c10.429 0 18.875-8.421 18.875-18.817v-105.111c0-4.986-1.991-9.775-5.53-13.302z" fill="#fff"/></g><path d="m585.48 197.413h-41.344m41.344 25.101h-41.344m41.344 25.1h-41.344m-27.2-51.244c-.289 0-.566.114-.77.319-.204.204-.318.481-.318.77s.114.567.318.771.481.319.77.319c.288 0 .565-.115.769-.319s.319-.482.319-.771-.115-.566-.319-.77c-.204-.205-.481-.319-.769-.319zm0 25.055c-.143 0-.284.028-.416.083-.132.054-.252.135-.353.236s-.181.22-.236.353c-.055.132-.083.273-.083.416s.028.285.083.417c.054.132.134.252.235.353s.221.181.353.236c.131.055.273.083.416.083.288 0 .564-.114.768-.318s.319-.481.319-.77c0-.288-.114-.565-.318-.77-.204-.204-.48-.319-.768-.319zm0 25.058c-.289 0-.565.115-.769.319s-.319.481-.319.77.115.566.319.77c.204.205.48.319.769.319.288 0 .565-.114.769-.319.204-.204.318-.481.318-.77s-.114-.566-.318-.77-.481-.319-.769-.319z" stroke="#2ccbd3" stroke-linecap="round" stroke-linejoin="round" stroke-width="9.43"/><path d="m517.313 583.745v-94.284m-44.06 39.889 44.06-44.725 44.061 44.725z" stroke="#fff" stroke-linecap="round" stroke-linejoin="round" stroke-width="16"/><path d="m173.108 625.263c14.368 0 27.059-9.439 31.177-23.229l66.071-220.547c7.212-24.082 29.33-40.544 54.401-40.544h279.421c37.905 0 65.162 36.45 54.486 72.871l-50.001 170.592c-7.098 24.224-29.273 40.857-54.486 40.857z" fill="#fff"/></g></svg>

<svg width="736" height="737" viewBox="0 0 736 737" fill="none" xmlns="http://www.w3.org/2000/svg">
<g clip-path="url(#clip0_108_339)">
<path d="M0.00540161 368.5C0.00540161 165.259 164.765 0 368.005 0V0C571.246 0 736.005 165.259 736.005 368.5V368.5C736.005 571.741 571.246 737 368.005 737V737C164.765 737 0.00540161 571.741 0.00540161 368.5V368.5Z" fill="url(#paint0_linear_108_339)"/>
<path d="M594.836 312.511V340.943L356.161 625.263H173.108C155.107 625.263 140.541 610.678 140.541 592.651V227.215C140.541 195.798 165.954 170.351 197.328 170.351H324.105C328.781 170.353 333.384 171.511 337.505 173.723C341.626 175.935 345.138 179.133 347.728 183.031L387.649 242.995C390.243 246.887 393.756 250.079 397.877 252.286C401.998 254.493 406.599 255.648 411.273 255.647H538.049C569.424 255.647 594.836 281.094 594.836 312.511Z" fill="#C4C4C4"/>
<path fill-rule="evenodd" clip-rule="evenodd" d="M229.53 288.612L199.167 258.343C195.132 254.326 189.675 252.071 183.986 252.072H106.984C95.1199 252.072 85.5111 261.65 85.5111 273.478V423.323C85.5111 435.149 95.1199 444.729 106.984 444.729H214.348C226.211 444.729 235.821 435.149 235.821 423.323V303.746C235.821 298.074 233.555 292.626 229.53 288.612V288.612Z" fill="white"/>
<path d="M185.433 297.226H131.89C115.684 297.226 102.546 310.381 102.546 326.61V380.225C102.546 396.453 115.684 409.609 131.89 409.609H185.433C201.639 409.609 214.777 396.453 214.777 380.225V326.61C214.777 310.381 201.639 297.226 185.433 297.226Z" fill="#2CCBD3" stroke="white" stroke-width="12.155" stroke-linecap="round" stroke-linejoin="round"/>
<path d="M214.777 341.619C206.254 340.312 197.549 340.873 189.264 343.264C180.979 345.655 173.311 349.818 166.789 355.467C160.268 361.115 155.049 368.114 151.493 375.98C147.937 383.845 146.128 392.39 146.192 401.024C146.21 403.899 146.44 406.768 146.878 409.61M140.603 330.949C141.043 331.384 141.343 331.941 141.466 332.548C141.589 333.155 141.529 333.784 141.294 334.357C141.059 334.93 140.659 335.419 140.146 335.764C139.632 336.109 139.028 336.293 138.409 336.293C137.791 336.293 137.187 336.109 136.673 335.764C136.159 335.419 135.76 334.93 135.524 334.357C135.289 333.784 135.229 333.155 135.352 332.548C135.475 331.941 135.776 331.384 136.215 330.949C136.802 330.366 137.595 330.039 138.421 330.039C139.247 330.039 140.04 330.366 140.626 330.949H140.603Z" stroke="white" stroke-width="12.155" stroke-linecap="round" stroke-linejoin="round"/>
<path fill-rule="evenodd" clip-rule="evenodd" d="M407.946 149.225L379.153 120.522C375.328 116.712 370.152 114.574 364.757 114.574H291.737C280.487 114.574 271.375 123.658 271.375 134.873V276.97C271.375 288.186 280.487 297.27 291.737 297.27H393.55C404.8 297.27 413.913 288.186 413.913 276.97V163.577C413.913 158.198 411.764 153.032 407.946 149.225Z" fill="white"/>
<path fill-rule="evenodd" clip-rule="evenodd" d="M370.726 221.285L333.602 242.323C324.462 247.496 313.153 240.847 313.153 230.286V188.219C313.153 177.65 324.442 171.009 333.602 176.182L370.726 197.22C380.051 202.486 380.051 216.001 370.726 221.285Z" fill="#2CCBD3"/>
<path fill-rule="evenodd" clip-rule="evenodd" d="M606.527 167.449L579.837 140.841C576.291 137.31 571.493 135.329 566.492 135.329H498.807C488.379 135.329 479.932 143.748 479.932 154.145V285.862C479.932 296.258 488.379 304.679 498.807 304.679H593.182C603.611 304.679 612.057 296.258 612.057 285.862V180.751C612.057 175.765 610.066 170.976 606.527 167.449V167.449Z" fill="white"/>
<path d="M585.48 197.413H544.136M585.48 222.514H544.136M585.48 247.614H544.136M516.936 196.37C516.647 196.37 516.37 196.484 516.166 196.689C515.962 196.893 515.848 197.17 515.848 197.459C515.848 197.748 515.962 198.026 516.166 198.23C516.37 198.434 516.647 198.549 516.936 198.549C517.224 198.549 517.501 198.434 517.705 198.23C517.909 198.026 518.024 197.748 518.024 197.459C518.024 197.17 517.909 196.893 517.705 196.689C517.501 196.484 517.224 196.37 516.936 196.37ZM516.936 221.425C516.793 221.425 516.652 221.453 516.52 221.508C516.388 221.562 516.268 221.643 516.167 221.744C516.066 221.845 515.986 221.964 515.931 222.097C515.876 222.229 515.848 222.37 515.848 222.513C515.848 222.656 515.876 222.798 515.931 222.93C515.985 223.062 516.065 223.182 516.166 223.283C516.267 223.384 516.387 223.464 516.519 223.519C516.65 223.574 516.792 223.602 516.935 223.602C517.223 223.602 517.499 223.488 517.703 223.284C517.907 223.08 518.022 222.803 518.022 222.514C518.022 222.226 517.908 221.949 517.704 221.744C517.5 221.54 517.224 221.425 516.936 221.425ZM516.936 246.483C516.647 246.483 516.371 246.598 516.167 246.802C515.963 247.006 515.848 247.283 515.848 247.572C515.848 247.861 515.963 248.138 516.167 248.342C516.371 248.547 516.647 248.661 516.936 248.661C517.224 248.661 517.501 248.547 517.705 248.342C517.909 248.138 518.023 247.861 518.023 247.572C518.023 247.283 517.909 247.006 517.705 246.802C517.501 246.598 517.224 246.483 516.936 246.483Z" stroke="#2CCBD3" stroke-width="9.43" stroke-linecap="round" stroke-linejoin="round"/>
<path d="M517.313 583.745V489.461M473.253 529.35L517.313 484.625L561.374 529.35H473.253Z" stroke="white" stroke-width="16" stroke-linecap="round" stroke-linejoin="round"/>
<path d="M173.108 625.263C187.476 625.263 200.167 615.824 204.285 602.034L270.356 381.487C277.568 357.405 299.686 340.943 324.757 340.943H604.178C642.083 340.943 669.34 377.393 658.664 413.814L608.663 584.406C601.565 608.63 579.39 625.263 554.177 625.263H173.108Z" fill="white"/>
</g>
<defs>
<linearGradient id="paint0_linear_108_339" x1="368.005" y1="0" x2="368.005" y2="737" gradientUnits="userSpaceOnUse">
<stop offset="0.00225706" stop-color="#2B5355"/>
<stop offset="1"/>
</linearGradient>
<clipPath id="clip0_108_339">
<rect width="736" height="737" rx="368" fill="white"/>
</clipPath>
</defs>
</svg>
